X:1
T:Title
%%score { ( 1 4 ) | ( 2 3 ) }
L:1/8
Q:1/4=100
M:6/8
K:C
V:1 treble nm="Grand Piano"
V:4 treble 
V:2 bass 
V:3 bass 
V:1
 [CE]3 [DF]2 [_E^F] | [EA]3 [EG]3 | [CE]2 [EG] [Ed]2 [Ec] | [Fc]3 .[FB]3 | B3 c2 d | F3 F2 F | %6
w: Adam~Geibel * *||||||
 F2 A [B,EG]2 [G,B,D] | [G,CE]6 | [G,CE]3 [G,DF]2 [A,_E^F] | [EA]3 [EG]3 | E2 G [Ee]2 [Gc] | %11
w: |||||
 [GB]3 .A3 | c3 B2 A | c2 G [A,CF]2 [G,CE] | .G3 z3 |[M:7/4] C6 z2 z2 z4 |[M:3/4] G6 | Ge dc GE | %18
w: |||||||
 G2 z [B,FG]3 | [CEG]6 |] %20
w: ||
V:2
 [C,G,]3 [C,G,]2 [C,A,] | [C,C]3 [C,C]3 | [C,G,]2 [C,G,] [C,G,]2 [C,G,] | [D,G,]3 .[D,G,]3 | %4
 [G,F]3 [G,A,F]2 [G,B,F] | [G,B,D]3 [G,B,D]2 [G,B,D] | .D3[K:bass] z3 | C,6 | C,3 C,2 C, | %9
 [C,C]3 [C,C]3 | .[G,C]3 z3 | [F,C]3 .[F,CF]3 | [^F,A,_E]3 [E,B,E]2 [E,CE] | [G,CE]3 G,,2 G,, | %14
 [G,,D,]3 [G,,D,]2 [G,,F,] |[M:7/4] [C,E,]6 z2 z2 z4 |[M:3/4] D,4 z2 | .[C,E,C]2 z2 z2 | %18
 z2 z G,,3 | C,6 |] %20
V:3
 x6 | x6 | x6 | x6 | x6 | x6 | [G,B,]2- [G,B,F][K:bass] G,,2 G,, | x6 | x6 | x6 | %10
 C,2- [C,CE] [C,C]2 [E,C] | x6 | x6 | x6 | x6 |[M:7/4] x14 |[M:3/4] G,,3- [G,,-E,]2 [G,,F,] | x6 | %18
 x6 | x6 |] %20
V:4
 x6 | x6 | x6 | x6 | x6 | x6 | x6 | x6 | x6 | x6 | x6 | x6 | x6 | x6 | B,2- [B,^F] [B,=F]2 [B,D] | %15
[M:7/4] x14 |[M:3/4] B,3 C2 D | x6 | x6 | x6 |] %20

